X:1
T: Widow Sloan
C:
R:Jig
Q:180
K:C
M:6/8
L:1/16
G4c2 c2B2c2|G4c2 c2B2c2|A4d2 d2c2d2|B2a2g2 f2d2B2|G4c2 c2B2c2|G4c2 c2B2c2|B2a2g2 f2e2d2|c6-c6|
g4e2 g4e2|g4e2 c2e2g2|a4f2 a4f2|a4f2 d2e2f2|g4e2 g4e2|g4e2 c2d2e2|d2e2d2 c2B2A2|G2^F2G2 B2A2G2|
g4e2 g4e2|g4e2 c2e2g2|a4f2 a4f2|a4f2 d2e2f2|g4e2 g4e2|g4e2 c2d2e2|d2e2d2 c2B2A2|G2^F2G2 B2A2G2|
G4c2 c2B2c2|G4c2 c2B2c2|A4d2 d2c2d2|B2a2g2 f2d2B2|G4c2 c2B2c2|G4c2 c2B2c2|B2a2g2 f2e2d2|c6-c6||
